X:66
T:Farroll my carrol - Nichols
%%VWML:SBG-1-2-467-0
F:http://www.vwml.org/record/SBG/1/2/467
Z:Original Sibelius transcriptions by M. & S. Graebe
M:3/8
I:linebreak $
K:G
V:1 treble nm="P1"
V:1
 (3d/d/d/ | e2 g | dBc | d G2 | gge | e3 | dGG | G2 d | dBG | E2 c | ccA | F D2 | ege |$ dgd | %14
 BGG | G3 | ccc | BdB | AGE | D B2 | ddd | efg |$ BGA | A3 | ccc | BdB | AGE | D d2 | ege | dBG | %30
 AGF | !fermata!G2 x | %32

